vsimundic/ur5-door-interaction/ferit_ur5_ws/src/cosper/path_planning/tsr_data/all_cabinets/trajectories_old2/traj_785.csv
j0,j1,j2,j3,j4,j5
-2.15711,-1.97404,-1.92042,0.752862,2.61551,0.785393
-2.15639,-1.94308,-1.96895,0.770434,2.57746,0.785394
-2.15413,-1.91192,-2.01667,0.786995,2.53818,0.785394
-2.1502,-1.88058,-2.06352,0.802496,2.49754,0.785395
-2.1444,-1.84898,-2.10949,0.816876,2.45537,0.785395
-2.13657,-1.81707,-2.15459,0.830063,2.4115,0.785395
-2.12649,-1.78477,-2.19879,0.84197,2.36574,0.785395
-2.11391,-1.752,-2.24209,0.852497,2.31786,0.785395
-2.09857,-1.71867,-2.28445,0.861531,2.26762,0.785395
-2.08016,-1.68469,-2.32584,0.868941,2.21474,0.785395
-2.05835,-1.64996,-2.36621,0.874578,2.15891,0.785395
-2.03276,-1.61436,-2.40551,0.878275,2.09977,0.785396
-2.00296,-1.57776,-2.44368,0.879845,2.03694,0.785396
-1.9685,-1.54005,-2.48062,0.879084,1.96999,0.785396
-1.92888,-1.50109,-2.51627,0.875768,1.89848,0.785396
-1.90697,-1.4811,-2.53358,0.873079,1.86086,0.785397
-1.88357,-1.46073,-2.55052,0.869662,1.82192,0.785397
-1.85861,-1.43999,-2.56709,0.865487,1.78159,0.785397
-1.83203,-1.41884,-2.58327,0.860522,1.7398,0.785397
-1.80374,-1.39728,-2.59905,0.854738,1.6965,0.785397
-1.77369,-1.37529,-2.6144,0.848104,1.65163,0.785397
-1.74181,-1.35285,-2.62933,0.840592,1.60511,0.785398
-1.72271,-1.34031,-2.6369,0.835619,1.57835,0.785398
-1.69643,-1.32306,-2.64731,0.828777,1.54152,0.785398
-1.67015,-1.3058,-2.65773,0.821935,1.50469,0.785398
-1.64387,-1.28854,-2.66814,0.815093,1.46786,0.785398
-1.61203,-1.26982,-2.67747,0.80569,1.42588,0.785398
-1.58541,-1.25278,-2.68734,0.798529,1.38911,0.785398
-1.55043,-1.23343,-2.69581,0.787637,1.34437,0.785398
-1.52348,-1.21661,-2.70517,0.780181,1.30766,0.785398
-1.49087,-1.19815,-2.71367,0.770228,1.26548,0.785398
-1.45739,-1.17959,-2.72184,0.759833,1.2226,0.785398
-1.42306,-1.16091,-2.72969,0.749006,1.17904,0.785398
-1.38788,-1.14214,-2.73721,0.737758,1.13482,0.785399
-1.35188,-1.12328,-2.74441,0.726104,1.08993,0.785399
-1.31509,-1.10434,-2.75131,0.714058,1.04442,0.785399
-1.27753,-1.08534,-2.75789,0.701639,0.998288,0.785399
-1.23924,-1.06628,-2.76418,0.688865,0.951573,0.785399
-1.20024,-1.04719,-2.77016,0.67576,0.904302,0.785399
-1.16059,-1.02809,-2.77585,0.662347,0.856512,0.785399
-1.12032,-1.009,-2.78126,0.648655,0.808243,0.7854
-1.0795,-0.989938,-2.78637,0.634716,0.75954,0.7854
-1.03816,-0.970947,-2.79121,0.620565,0.710456,0.7854
-0.996393,-0.952058,-2.79578,0.606241,0.661048,0.785401
-0.954251,-0.933312,-2.80007,0.591789,0.611382,0.785401
-0.911818,-0.914755,-2.8041,0.577259,0.56153,0.785402
-0.869179,-0.896438,-2.80787,0.562709,0.511571,0.785402
-0.826432,-0.878422,-2.81138,0.548203,0.461597,0.785403
-0.78368,-0.860776,-2.81464,0.533814,0.411707,0.785404
-0.741043,-0.843579,-2.81764,0.519624,0.362013,0.785405
-0.698649,-0.826921,-2.82041,0.505727,0.312636,0.785406
-0.656643,-0.810904,-2.82293,0.492229,0.263715,0.785407
-0.615183,-0.795646,-2.82521,0.47925,0.215401,0.785408
-0.574444,-0.781278,-2.82725,0.466926,0.16786,0.785408
-0.534621,-0.767959,-2.82906,0.455423,0.121282,0.785399
-0.495984,-0.755919,-2.83063,0.444962,0.0759258,0.785396
-0.458562,-0.746225,-2.83185,0.438128,0.0318118,0.783756
-0.42247,-0.737055,-2.83293,0.430505,-0.0109524,0.783285
-0.388338,-0.728374,-2.83396,0.421117,-0.0517454,0.785019
-0.32586,-0.718674,-2.83507,0.412271,-0.127552,0.785281
-0.271994,-0.717254,-2.83526,0.410995,-0.194826,0.785327
-0.227094,-0.724223,-2.83453,0.417212,-0.253293,0.785346
-0.190804,-0.739152,-2.83284,0.430446,-0.303387,0.785356
-0.162257,-0.761144,-2.83016,0.449745,-0.346043,0.785363
-0.140343,-0.789048,-2.82641,0.473899,-0.382434,0.785369
-0.123931,-0.821664,-2.82154,0.50164,-0.413745,0.785373
-0.111999,-0.857869,-2.81548,0.531779,-0.441042,0.785377
-0.103692,-0.896673,-2.80817,0.563269,-0.465221,0.78538
-0.0983215,-0.937243,-2.79955,0.595223,-0.487004,0.785383
-0.0953499,-0.978893,-2.78959,0.626909,-0.506958,0.785385
-0.0943606,-1.02107,-2.77825,0.657741,-0.525528,0.785387
-0.0950327,-1.06334,-2.7655,0.687257,-0.543058,0.785389
-0.0971188,-1.10537,-2.75131,0.715106,-0.559821,0.78539
-0.100428,-1.14692,-2.73569,0.741028,-0.576027,0.785392
-0.104811,-1.18782,-2.71861,0.764844,-0.591848,0.785393
-0.110154,-1.22794,-2.70009,0.786437,-0.60742,0.785394
-0.116365,-1.26723,-2.6801,0.805744,-0.622853,0.785394
-0.123373,-1.30567,-2.65865,0.822741,-0.63824,0.785395
-0.131122,-1.34327,-2.63575,0.837435,-0.653655,0.785396
-0.139567,-1.38005,-2.61139,0.849857,-0.669163,0.785396
-0.153467,-1.43381,-2.57211,0.864333,-0.692717,0.785397
-0.163515,-1.4688,-2.54409,0.871299,-0.70868,0.785397
-0.174166,-1.50319,-2.5146,0.876192,-0.724896,0.785397
-0.185403,-1.53705,-2.48362,0.87908,-0.741399,0.785397
-0.197214,-1.57046,-2.45116,0.880027,-0.758216,0.785398
-0.209589,-1.6035,-2.41719,0.8791,-0.775375,0.785398
-0.222518,-1.63624,-2.38171,0.876359,-0.792898,0.785398
-0.235996,-1.66876,-2.3447,0.871862,-0.810803,0.785398
-0.250015,-1.70112,-2.30614,0.865663,-0.829108,0.785398
-0.264157,-1.7335,-2.26574,0.857647,-0.848236,0.785399
