vsimundic/ur5-door-interaction/ferit_ur5_ws/src/cosper/path_planning/moveit_traj_data/traj_125.csv
j0,j1,j2,j3,j4,j5
0.0,-1.5707963267948966,0.0,-1.5707963267948966,0.0,0.0
-0.26964795929258484,-2.1927936908428256,-1.9186371006978422,0.972714260269356,-0.32551687420768255,0.7823428019405694
-0.24524598847661824,-2.245982942143946,-1.8066284338303726,0.9111826952388538,-0.4325874774626049,0.7852857753188414
-0.23045890074811673,-2.3051747129958975,-1.682034314446651,0.8471780498020381,-0.5294572569734026,0.7838356888794644
-0.22327335233497592,-2.3705593650428995,-1.545275954182016,0.7754517183528078,-0.6196029245098492,0.7842719614178912
-0.2271777933261689,-2.5235842237728248,-1.2268444585322378,0.6101824500757154,-0.7809283276869151,0.7837563344169564
-0.23602141839049662,-2.6156276380131893,-1.036293850740018,0.5106849912635959,-0.8538836938805987,0.7845536917254506
-0.24846785208797081,-2.726366574573336,-0.8068440820682549,0.3907058222964653,-0.9258262398410847,0.7868964384619074
-0.26370156743674517,-2.8802119552338046,-0.487557754880465,0.22665570582822067,-0.99277580296543,0.784718985587823
