vsimundic/ur5-door-interaction/ferit_ur5_ws/src/cosper/path_planning/moveit_traj_data/traj_511.csv
j0,j1,j2,j3,j4,j5
0.0,-1.5707963267948966,0.0,-1.5707963267948966,0.0,0.0
-0.05459443899345054,-2.0354485792401875,-1.8061517263255196,-2.443202334624765,0.4163833219531411,-2.3554574478563413
-0.027588209890287416,-2.110238589921852,-1.6814278834222431,-2.4906642627865687,0.5251490643404321,-2.3571879737240518
-0.010657415480893771,-2.1917014892331235,-1.540266662031035,-2.5495499569737308,0.624835736008322,-2.3566919261625165
-0.002504981284296789,-2.2818670572190336,-1.3795698955528288,-2.6234702409000703,0.7158494793376914,-2.354008010431783
-0.0008388521106925872,-2.3793406873121214,-1.1994166591037738,-2.7027166356660293,0.800287803784062,-2.358007046972073
-0.004630438839053298,-2.4922737670576107,-0.9861679311131492,-2.8047367182909584,0.8776773237626001,-2.356032549975901
-0.013277071253812374,-2.6307247850421334,-0.717414316774447,-2.9344508567994447,0.9530232872464615,-2.3559565449611255
-0.025528518992975337,-2.86154458587883,-0.2549855071257661,-3.1667535764218333,1.024218863336384,-2.35698195562932
