vsimundic/ur5-door-interaction/ferit_ur5_ws/src/cosper/path_planning/moveit_traj_data/traj_167.csv
j0,j1,j2,j3,j4,j5
0.0,-1.5707963267948966,0.0,-1.5707963267948966,0.0,0.0
-2.658269966280857,-1.1349270661426631,1.6913917058878098,5.7271920727368055,-2.8576544214547495,3.926571461465418
-2.6452394609043886,-1.058690736554757,1.571079448561402,5.767941371738639,-2.762903346281783,3.923760761240108
-2.6391936478254743,-0.9794183088479833,1.4410848605050979,5.820798684930596,-2.6734713432107386,3.9255547534880946
-2.638620943478876,-0.898583791429842,1.3033588914023333,5.876981915442299,-2.5900200260116613,3.926751996194919
-2.642918059403934,-0.8130745565833942,1.1527019182943778,5.942210666364841,-2.512781875914046,3.9254855699835307
-2.6509647545974215,-0.7210036788107649,0.9857270295193351,6.0183086682100795,-2.4384924542467963,3.9259580190924446
0.7745604799110697,-2.524645323808155,-0.7907963578278646,-2.967554840281211,1.0717491203125555,3.927175743564298
0.7476043225297214,-2.6529484606498093,-0.5434922069535906,-3.086316184624084,1.1257908486087376,3.926206558555957
