vsimundic/ur5-door-interaction/ferit_ur5_ws/src/cosper/path_planning/moveit_traj_data/traj_538.csv
j0,j1,j2,j3,j4,j5
0.0,-1.5707963267948966,0.0,-1.5707963267948966,0.0,0.0
-0.6382214949602533,-3.1080722867928583,1.520397585245526,-4.6945543991441,0.9660300535212843,-2.356051190933103
-0.6585838208316815,-3.099597404987971,1.3909341549068364,-4.573577216933395,1.027169056341902,-2.357591628624449
-0.6828668282536581,-3.0768955174877064,1.2440028817643831,-4.44998326795895,1.0860111205508085,-2.3556140404462775
-0.7092011165130316,-3.0386547212034,1.0770713031999362,-4.321112928414312,1.1419735243006424,-2.3562792771925185
-0.7378972312929443,-2.980583139770966,0.878903476843711,-4.181730755571595,1.196340171003524,-2.3551626551432654
-0.7680179957561281,-2.8909463814390066,0.6244366467931528,-4.0157080772556615,1.249036948418785,-2.3555601772358252
-0.7993108834233451,-2.6759108923108488,0.1161100769624338,-3.723441833418537,1.3014584236485602,-2.356584518233483
-0.831406008386756,-3.146331449938518,0.5973896656308182,-0.5932001688169103,-1.3516838764405166,-5.496840365579834
