vsimundic/ur5-door-interaction/ferit_ur5_ws/src/cosper/path_planning/moveit_traj_data/traj_946.csv
j0,j1,j2,j3,j4,j5
0.0,-1.5707963267948966,0.0,-1.5707963267948966,0.0,0.0
0.05255153136794874,-1.659685870283838,-1.75313010137304,-2.870684894593034,0.7830261681978474,-2.3554005267626024
0.05330565106548562,-1.7688134593897948,-1.6265529750283823,-2.8871590630400275,0.8651920025194302,-2.3557676153658393
0.045952066908383826,-1.8798853111502511,-1.4843248423174944,-2.918540666980517,0.9403563245895906,-2.3563837475284437
0.03309662979793583,-1.9938432750436863,-1.3251093378335637,-2.9641009473047406,1.0097578763719004,-2.355481239457095
0.015372158235295344,-2.1135950580394676,-1.1443991426835518,-3.0237543418400508,1.0756201425575005,-2.356050084201382
-0.005232921130526935,-2.2455155432055847,-0.9304664559679372,-3.106026481975458,1.1377351901130532,-2.35701618967717
-0.028513025672456806,-3.0321363471762903,0.6562406755813031,2.3758854944602734,-5.086502928337201,-2.355529777065541
2.7885601203641084,-0.020433838258268066,-0.29133327598899494,3.4525900322924956,-4.180074664349324,-5.49886092165548
