vsimundic/ur5-door-interaction/ferit_ur5_ws/src/cosper/path_planning/moveit_traj_data/traj_694.csv
j0,j1,j2,j3,j4,j5
0.0,-1.5707963267948966,0.0,-1.5707963267948966,0.0,0.0
0.5961820804560701,-2.188131957360303,-1.9276586857150912,0.9743971663675076,-0.5411284559841452,0.7842557090791766
0.5843779107746174,-2.2398722939159446,-1.8185858505860992,0.9150046704507991,-0.6114649078170882,0.7869919844582092
0.5683822000003087,-2.2947267098314423,-1.7035950666267772,0.8557921773225903,-0.6785433583590557,0.7866617009085658
0.5495769477116355,-2.3519839435401497,-1.5836952214514894,0.792534133811763,-0.7426617282698502,0.7866495211579974
0.5285707352571405,-2.412269976945346,-1.4578329133141685,0.7285646870294009,-0.8051031336199916,0.7862793978893968
0.5054895143455075,-2.4758056594285294,-1.3255941032377094,0.6593628529132116,-0.8632719589968085,0.7847517662176495
0.4806783426220803,-2.544421922328421,-1.1827970741446112,0.5867632374063686,-0.9210108850230783,0.7841740921634451
0.45463133297621533,-2.618629474196539,-1.028928401887988,0.5063780743411298,-0.9770760866066395,0.7858076644521969
