vsimundic/ur5-door-interaction/ferit_ur5_ws/src/cosper/path_planning/moveit_traj_data/traj_124.csv
j0,j1,j2,j3,j4,j5
0.0,-1.5707963267948966,0.0,-1.5707963267948966,0.0,0.0
0.19692095682252914,-1.762975254160495,-1.5634375505737466,-2.9575566953706414,0.4285980241487297,-2.3548155762693157
0.21892728550922508,-1.855001445537374,-1.4472370527745166,-2.9793822391427187,0.5339690818217185,-2.358188858857624
0.23119583293947935,-1.9538382358403934,-1.3130397686799629,-3.01460315262417,0.6295769171963449,-2.357185329907876
0.23587953782184493,-2.0604871685993627,-1.1572754401520855,-3.064292884742601,0.7167655508703406,-2.3565449007538875
0.23427265496232053,-2.1784332176062704,-0.9732125571178273,-3.131923516419155,0.7974356866290783,-2.355253995572936
0.22755339627695628,-2.3148638472155283,-0.7436834487952042,-3.2232614214592465,0.8734848492025868,-2.3566500042542193
0.21670742739728993,-2.5041734472665897,-0.4001900983180274,-3.3787578451936526,0.9445048693504967,-2.35536282392298
0.20227189614124302,-3.221937073875813,0.5861067825602123,5.778505061590539,-1.0132339989773005,0.7846420503809997
