vsimundic/ur5-door-interaction/ferit_ur5_ws/src/cosper/path_planning/tsr_data/all_cabinets/trajectories_old/traj_969.csv
j0,j1,j2,j3,j4,j5
-3.3148,4.16653,-1.41892,-2.74766,-2.95949,3.92695
-3.32353,4.20654,-1.48263,-2.72391,-2.92232,3.92699
-3.33117,4.24624,-1.54442,-2.70182,-2.88444,3.927
-3.33762,4.28569,-1.60436,-2.68132,-2.84581,3.927
-3.3428,4.32496,-1.66252,-2.66243,-2.80636,3.927
-3.34658,4.36411,-1.71895,-2.64516,-2.76602,3.927
-3.34886,4.40323,-1.77369,-2.62953,-2.72471,3.927
-3.3495,4.44237,-1.82677,-2.61559,-2.68234,3.927
-3.34894,4.46875,-1.86157,-2.60717,-2.65317,3.92699
-3.34754,4.49519,-1.89564,-2.59955,-2.62343,3.92699
-3.34524,4.52172,-1.92898,-2.59274,-2.59308,3.92699
-3.34199,4.54836,-1.9616,-2.58676,-2.56206,3.92699
-3.33773,4.57514,-1.9935,-2.58163,-2.53031,3.92699
-3.33241,4.60208,-2.0247,-2.57738,-2.49777,3.92699
-3.32594,4.6292,-2.05519,-2.57401,-2.46437,3.92699
-3.31827,4.65654,-2.08497,-2.57157,-2.43004,3.92699
-3.3093,4.68412,-2.11405,-2.57008,-2.3947,3.92699
-3.29894,4.71197,-2.14241,-2.56956,-2.35826,3.92699
-3.28711,4.74011,-2.17005,-2.57006,-2.32063,3.92699
-3.2737,4.76856,-2.19696,-2.57159,-2.2817,3.92699
-3.25859,4.79734,-2.22314,-2.5742,-2.24136,3.92699
-3.24167,4.82648,-2.24856,-2.57792,-2.1995,3.92699
-3.22279,4.85599,-2.27322,-2.58277,-2.15598,3.92699
-3.20183,4.88589,-2.2971,-2.58879,-2.11067,3.92699
-3.17862,4.91618,-2.32017,-2.596,-2.06343,3.92699
-3.15302,4.94686,-2.34242,-2.60444,-2.01411,3.92699
-3.12485,4.97793,-2.36383,-2.6141,-1.96254,3.92699
-3.09396,5.00938,-2.38437,-2.62502,-1.90858,3.92699
-3.06016,5.04119,-2.40401,-2.63717,-1.85207,3.92699
-3.02329,5.0733,-2.42274,-2.65056,-1.79284,3.92699
-2.98319,5.10568,-2.44053,-2.66515,-1.73076,3.92699
-2.93973,5.13826,-2.45735,-2.6809,-1.6657,3.92699
-2.89277,5.17095,-2.47319,-2.69776,-1.59756,3.92699
-2.84223,5.20365,-2.48803,-2.71562,-1.52627,3.92699
-2.81699,5.2181,-2.49388,-2.72423,-1.49212,3.92699
-2.78958,5.2338,-2.50023,-2.73357,-1.45504,3.92699
-2.76218,5.24949,-2.50658,-2.74291,-1.41797,3.92699
-2.73477,5.26518,-2.51293,-2.75225,-1.38089,3.92699
-2.70736,5.28087,-2.51928,-2.76159,-1.34381,3.92699
-2.67394,5.29665,-2.52445,-2.7722,-1.30101,3.92699
-2.64623,5.31196,-2.53045,-2.78151,-1.26393,3.92699
-2.61028,5.32739,-2.53495,-2.79244,-1.21887,3.92699
-2.58229,5.34232,-2.54061,-2.80171,-1.18178,3.92699
-2.54406,5.35722,-2.54445,-2.81277,-1.13471,3.92699
-2.51581,5.37178,-2.5498,-2.82198,-1.0976,3.92699
-2.48136,5.38629,-2.55409,-2.8322,-1.05443,3.92699
-2.44633,5.40054,-2.55815,-2.84239,-1.01079,3.92699
-2.41077,5.41452,-2.56199,-2.85253,-0.966734,3.92699
-2.37472,5.42821,-2.56562,-2.86259,-0.922298,3.92699
-2.33823,5.44158,-2.56904,-2.87254,-0.877527,3.92699
-2.30136,5.45462,-2.57226,-2.88236,-0.832473,3.92699
-2.26417,5.4673,-2.57528,-2.89202,-0.787191,3.92699
-2.22674,5.4796,-2.5781,-2.9015,-0.741746,3.92699
-2.18912,5.49148,-2.58074,-2.91075,-0.696205,3.92699
-2.15142,5.50293,-2.58319,-2.91974,-0.650646,3.92699
-2.1137,5.5139,-2.58547,-2.92844,-0.605149,3.92699
-2.07607,5.52437,-2.58756,-2.9368,-0.559803,3.92699
-2.03863,5.53428,-2.58949,-2.9448,-0.514704,3.92699
-2.00149,5.54362,-2.59124,-2.95238,-0.469952,3.92699
-1.96476,5.55232,-2.59283,-2.95949,-0.425654,3.92699
-1.92856,5.56035,-2.59425,-2.9661,-0.381922,3.92699
-1.893,5.56766,-2.59552,-2.97214,-0.338869,3.92699
-1.85822,5.5742,-2.59662,-2.97758,-0.296612,3.92699
-1.82434,5.57992,-2.59757,-2.98236,-0.255266,3.92699
-1.79147,5.58478,-2.59835,-2.98643,-0.214945,3.92699
-1.75973,5.58873,-2.59899,-2.98975,-0.175755,3.92699
-1.70007,5.59374,-2.59978,-2.99396,-0.101151,3.92699
-1.64604,5.59473,-2.59994,-2.9947,-0.0320829,3.9269
-1.59808,5.59147,-2.59945,-2.99196,0.0310848,3.92693
-1.55632,5.584,-2.59828,-2.98571,0.0882842,3.92698
-1.52062,5.57248,-2.59641,-2.97607,0.139727,3.92699
-1.4906,5.55714,-2.59378,-2.96336,0.185842,3.92699
-1.46576,5.53829,-2.59036,-2.94793,0.227191,3.92699
-1.44553,5.51627,-2.58607,-2.9302,0.264391,3.92699
-1.42934,5.49142,-2.58086,-2.91056,0.298056,3.92699
-1.41152,5.44961,-2.57119,-2.87842,0.343155,3.92699
-1.4001,5.40326,-2.55907,-2.84419,0.383228,3.92699
-1.39388,5.35329,-2.54428,-2.80901,0.419605,3.92699
-1.39215,5.31838,-2.53283,-2.78555,0.442324,3.92699
-1.39209,5.28243,-2.52004,-2.76239,0.464109,3.92699
-1.39353,5.24564,-2.50584,-2.7398,0.485167,3.92699
-1.39632,5.20818,-2.49017,-2.718,0.505673,3.92699
-1.3994,5.17068,-2.47299,-2.69769,0.526706,3.92699
